src/server/app/webroot/images/styleguide/css-toggle.svg

<svg xmlns="http://www.w3.org/2000/svg" viewBox="0 0 30 30"><path d="M11.5 5h5c.3 0 .5-.2.5-.5v-4c0-.3-.2-.5-.5-.5H.5C.2 0 0 .2 0 .5v16c0 .3.2.5.5.5h4c.3 0 .5-.2.5-.5v-5C5 7.9 7.9 5 11.5 5z"/><path d="M21 11c.4 0 .8 0 1.2.1h.1c.2 0 .5-.2.5-.5 0-.1 0-.2-.1-.3C22 7.8 19.8 6 17.5 6h-6C8.5 6 6 8.5 6 11.5v7c0 2.7 2 5 4.7 5.4h.1c.1 0 .3-.1.4-.2.1-.1.2-.3.1-.5-.2-.7-.3-1.4-.3-2.2 0-5.5 4.5-10 10-10z"/><path d="M21 12c-5 0-9 4-9 9s4 9 9 9 9-4 9-9-4-9-9-9z"/></svg>

<?xml version="1.0" encoding="UTF-8" standalone="no"?>
<svg
   xmlns:dc="http://purl.org/dc/elements/1.1/"
   xmlns:cc="http://creativecommons.org/ns#"
   xmlns:rdf="http://www.w3.org/1999/02/22-rdf-syntax-ns#"
   xmlns:svg="http://www.w3.org/2000/svg"
   xmlns="http://www.w3.org/2000/svg"
   xml:space="preserve"
   style="enable-background:new 0 0 30 30;"
   viewBox="0 0 30 30"
   y="0px"
   x="0px"
   id="Layer_1"
   version="1.1"><metadata
     id="metadata21"><rdf:RDF><cc:Work
         rdf:about=""><dc:format>image/svg+xml</dc:format><dc:type
           rdf:resource="http://purl.org/dc/dcmitype/StillImage" /><dc:title></dc:title></cc:Work></rdf:RDF></metadata><defs
     id="defs19" /><g
     id="g3"><g
       id="g5"><path
         id="path7"
         d="M11.5,5h5C16.8,5,17,4.8,17,4.5v-4C17,0.2,16.8,0,16.5,0h-16C0.2,0,0,0.2,0,0.5v16C0,16.8,0.2,17,0.5,17h4    C4.8,17,5,16.8,5,16.5v-5C5,7.9,7.9,5,11.5,5z" /></g><g
       id="g9"><path
         id="path11"
         d="M21,11c0.4,0,0.8,0,1.2,0.1c0,0,0,0,0.1,0c0.2,0,0.5-0.2,0.5-0.5c0-0.1,0-0.2-0.1-0.3C22,7.8,19.8,6,17.5,6h-6    C8.5,6,6,8.5,6,11.5v7c0,2.7,2,5,4.7,5.4c0,0,0,0,0.1,0c0.1,0,0.3-0.1,0.4-0.2c0.1-0.1,0.2-0.3,0.1-0.5C11.1,22.5,11,21.8,11,21    C11,15.5,15.5,11,21,11z" /></g><g
       id="g13"><path
         id="path15"
         d="M21,12c-5,0-9,4-9,9s4,9,9,9s9-4,9-9S26,12,21,12z" /></g></g></svg>
